fs/add_square_multiple_16_regular.svg

<svg viewBox="0 0 16 16" fill="none" xmlns="http://www.w3.org/2000/svg" height="1em" width="1em">
  <path d="M4 6.99999C4 6.72385 4.22386 6.49999 4.5 6.49999H6.5V4.5C6.5 4.22386 6.72386 4 7 4C7.27614 4 7.5 4.22386 7.5 4.5V6.49999H9.49999C9.77613 6.49999 9.99999 6.72385 9.99999 6.99999C9.99999 7.27614 9.77613 7.49999 9.49999 7.49999H7.5V9.5C7.5 9.77614 7.27614 10 7 10C6.72386 10 6.5 9.77614 6.5 9.5V7.49999H4.5C4.22386 7.49999 4 7.27614 4 6.99999ZM4 2C2.89543 2 2 2.89543 2 4V9.99999C2 11.1046 2.89543 12 4 12H9.99999C11.1046 12 12 11.1046 12 9.99999V4C12 2.89543 11.1046 2 9.99999 2H4ZM3 4C3 3.44771 3.44771 3 4 3H9.99999C10.5523 3 11 3.44771 11 4V9.99999C11 10.5523 10.5523 11 9.99999 11H4C3.44771 11 3 10.5523 3 9.99999V4ZM10.5 13C11.8807 13 13 11.8807 13 10.5V3.26758C13.5978 3.61339 14 4.25973 14 5.00001V10.5C14 12.433 12.433 14 10.5 14H5.00001C4.25973 14 3.61339 13.5978 3.26758 13H10.5Z" fill="#212121"/>
</svg>

<svg viewBox="0 0 16 16" fill="none" xmlns="http://www.w3.org/2000/svg" height="1em" width="1em">
  <path d="M4 7a.5.5 0 0 1 .5-.5h2v-2a.5.5 0 0 1 1 0v2h2a.5.5 0 0 1 0 1h-2v2a.5.5 0 0 1-1 0v-2h-2A.5.5 0 0 1 4 7Zm0-5a2 2 0 0 0-2 2v6a2 2 0 0 0 2 2h6a2 2 0 0 0 2-2V4a2 2 0 0 0-2-2H4ZM3 4a1 1 0 0 1 1-1h6a1 1 0 0 1 1 1v6a1 1 0 0 1-1 1H4a1 1 0 0 1-1-1V4Zm7.5 9a2.5 2.5 0 0 0 2.5-2.5V3.268A2 2 0 0 1 14 5v5.5a3.5 3.5 0 0 1-3.5 3.5H5a2 2 0 0 1-1.732-1H10.5Z" fill="#212121"/>
</svg>
